X: 1
T: TEST: B4 (Cliffs of Moher)
M: 6/8
L: 1/8
R: Jig
B: Matt Cranitch, The Irish Fiddle Book
K: ADor
d \
|  eaa bag | eaf ged | c2A BAG | EFG ABd | eaa bag | eaf ged | c2A BAG | EFGA2 :|\
d \
| e2e dBA | e2e dBA | GAB dBA | GAB dBd | e2e dBA | e2e dBA | GAB dBG | EFGA2 ||\
| e2e dBA | e2e dBA | GAB dBA | GAB dBd | e2e dee | cee Bee | EFG BAG | edB A3 |]\
